X:22
T:Kingdom of Fife
M:9/8
L:1/8
K:GMix
G3 TB2c dcB|AFA fcA c2A|G3         TB2c         d(B/c/d/B/)|GAB gdB d2B:|
gdg ece dBd|AFA fcA c2A|g(e/f/g/e/) d(B/c/d/B/) G(B/c/d/B/)|GAB gdB d2B |
gdg ece dBd|AFA fcA c2A|G3         TB2c         d(B/c/d/B/)|GAB gdB d2B|]
% N.B. ^This last Strain is but once play'd at a time.^

% @@@@@@@@@@@@@@@@@@@@@@@@@@@@@@@@@@

%% 23. ===============================================================================

% @I'LL NE'ER LEAVE@
%     ^Thee.^
%
% *LEAD down in the middle of the first pair, cast about the 2d, and turn your
% partner; lead up in the middle of the 2d pair, cast about the 1st, and turn
% your partner.  *Four hands round, then Right and Left.  *THE Man with 1st and
% 2d Men, the Woman with 1st and 2d Women, meet setting, and retire; the Woman
% with 1st Couple, and the Man with the 2d, meet setting; then turn your Partner.
% *Lead out at both sides.

% @@@@@@@@@@@@@@@@@@@@@@@@@@@@@@@@@@

